X:1
T:???? ??? - Otce Nash
T:???? ??? - Otce Nash
T:(Pater Noster)
T:Nikolaj Kedrov Sr. (1871 - 1940)
C:Nikolaj Kedrov Sr. (1871 - 1940)
%%score 1 2 3 4
L:1/8
Q:1/4=80
M:none
K:C
V:1 treble nm="Soprano" snm="S"
V:2 treble nm="Alto" snm="A"
V:3 treble-8 nm="Tenor" snm="T"
V:4 bass nm="Bass" snm="B"
V:1
"^Adagio"!pp! E4 E2 !breath!E8 | E2 E2 E2 E2 E2 E2 E2 F8 | F2 F2 F2 F2 G4 G2 G2 !breath!G4 | %3
w: Ot- che nash,|i- zhe ye- si na ne- be- sekh,|da svya- ti- tsya i- mya Tvo- ye,|
 G2 G2 G2 G2 G4 F2 F2 E2 F8 | F2 F4 F4 F4 E2 G2 !breath!D4 | %5
w: da pri- i- det tsar- stvi- ye Tvo- ye,|da bu- det vo- lya Tvo- ye|
 D4 D2 D2 D2 E2 F4 E2 D4 C4 !fermata!D8 |!pp! E4 E2 E2 E2 E2 F4 F2 F4 | %7
w: ya- ko na ne- be- si i na ze- mli.|Khleb nash na- sushch- ni dazhd nam dnes|
 F2 F2 G4 G2 G2 G2 G2 G4 F4 | F4 F2 E2 G2 !breath!D4 D2 E2 F4 | F2 F2 F2 (E4 C2) (D4 C4) D8 | %10
w: i o- sta- vi nam do- lgi na- sha,|ya- ko- zhe i myi o- sta- vlya-|yem dol- zhni- kom * na * shim,|
 z2 E2 E2 E2 (E4 G4) c2 c2 B2 A2 G4 F4 E4 |!pp! D2 D2 G4 D2 G4 | C2 D2 E8 E8 E8 | E4 E8 |] %14
w: i ne vve- di * nas vo i- sku- she- ni- ye,|no i- zba- vi nas|ot lu- ka va- go.|A- min!|
V:2
!pp! C4 C2 !breath!C8 | C2 C2 C2 C2 C2 C2 C2 C4 B,4 | B,2 B,2 B,2 B,2 D4 C2 C2 !breath!C4 | %3
w: Ot- che nash,|i- zhe ye- si na ne- be- sekh, *|da svya- ti- tsya i- mya Tvo- ye,|
 C2 C2 C2 C2 C4 C2 C2 C2 C8 | C2 C4 C4 C4 C2 C2 !breath!B,4 | %5
w: da pri- i- det tsar- stvi- ye Tvo- ye,|da bu- det vo- lya Tvo- ye|
 B,4 B2 B2 B2 C2 C4 C2 B,4 C4 !fermata!B,8 |!pp! C4 C2 C2 C2 C2 C4 B,2 B,4 | %7
w: ya- ko na ne- be- si i na ze- mli.|Khleb nash na- sushch- ni dazhd nam dnes|
 B,2 B,2 D4 C2 C2 C2 C2 C4 C4 | C4 C2 C2 C2 !breath!B,4 B,2 C2 C4 | %9
w: i o- sta- vi nam do- lgi na- sha,|ya- ko- zhe i myi o- sta- vlya-|
 C2 C2 C2 (C4 A,2) (B,4 A,4) B,8 | z2 C2 C2 C2 E8 E2 E2 E2 F2 (G2 C2) (C2 B,2) C4 | %11
w: yem dol- zhni- kom * na * shim,|i ne vve- di * * nas vo i- sku- she- ni- ye,|
!pp! C2 C2 C4 C2 C4 | C2 C2 (C4 A,4) B,8 C8 | B,4 C8 |] %14
w: no i- zba- vi nas|ot lu- ka * va- go.|A- min!|
V:3
!pp! G4 G2 !breath!G8 | G2 G2 G2 G2 G2 G2 G2 G8 | G2 G2 G2 G2 G4 G2 G2 !breath!G4 | %3
w: Ot- che nash,|i- zhe ye- si na ne- be- sekh,|da svya- ti- tsya i- mya Tvo- ye,|
 G2 G2 (c2 _B2) B4 A2 A2 G2 A8 | A2 A4 A4 A4 G2 G2 !breath!G4 | %5
w: da pri- i- det tsar- stvi- ye Tvo- ye,|da bu- det vo- lya Tvo- ye|
 G4 G2 G2 G2 G2 A4 G2 G4 A4 !fermata!G8 |!pp! G4 G2 G2 G2 G2 G4 G2 G4 | %7
w: ya- ko na ne- be- si i na ze- mli.|Khleb nash na- sushch- ni dazhd nam dnes|
 G2 G2 G4 G2 G2 c2 _B2 B4 A4 | A4 G2 G2 G2 !breath!G4 G2 G2 A4 | A2 A2 A2 G6 (G4 E4) G8 | %10
w: i o- sta- vi nam do- lgi na- sha,|ya- ko- zhe i myi o- sta- vlya-|yem dol- zhni- kom na * shim,|
 z2 G2 G2 G2 c8 c2 c2 c2 c2 (c2 G2) G4 G4 |!pp! A2 A2 G4 A2 G4 | A2 A2 (G4 E4) G8 G8 | G4 G8 |] %14
w: i ne vve- di * nas vo i- sku- she- ni- ye,|no i- zba- vi nas|ot lu- ka * va- go.|A- min!|
V:4
!pp! C,4 C,2 !breath!C,8 | C,2 C,2 C,2 C,2 C,2 C,2 C,2 D,8 | %2
w: Ot- che nash,|i- zhe ye- si na ne- be- sekh,|
 D,2 D,2 D,2 D,2 E,4 E,2 E,2 !breath!E,4 | E,2 E,2 E,2 E,2 F,4 F,2 F,2 F,2 F,8 | %4
w: da svya- ti- tsya i- mya Tvo- ye,|da pri- i- det tsar- stvi- ye Tvo- ye,|
 F,2 F,4 E,4 D,4 E,2 E,2 !breath!G,4 | G,4 G,2 G,2 G,2 E,2 D,4 E,2 G,4 A,4 !fermata!G,8 | %6
w: da bu- det vo- lya Tvo- ye|ya- ko na ne- be- si i na ze- mli.|
!pp! C,4 C,2 C,2 C,2 C,2 D,4 D,2 D,4 | D,2 D,2 E,4 E,2 E,2 E,2 E,2 F,4 (F,2 E,2) | %8
w: Khleb nash na- sushch- ni dazhd nam dnes|i o- sta- vi nam do- lgi na- sha, *|
 D,4 D,2 E,2 E,2 !breath!G,4 G,2 E,2 D,4 | D,2 D,2 D,2 E,6 G,8 G,8 | %10
w: ya- ko- zhe i myi o- sta- vlya-|yem dol- zhni- kom na- shim,|
 z2 C,2 C,2 C,2 (C4 B,4) A,2 A,2 G,2 F,2 E,4 D,4 C,4 |!pp! F,2 F,2 E,4 F,2 E,4 | %12
w: i ne vve- di * nas vo i- sku- she- ni- ye,|no i- zba- vi nas|
 F,2 F,2 C,8 G,8 C,8 | G,,4 C,,8 |] %14
w: ot lu- ka va- go.|A- min!|

